assets/img/braze_icons/arrow-narrow-up-right.svg

<svg fill="none" height="24" viewBox="0 0 24 24" width="24" xmlns="http://www.w3.org/2000/svg"><path d="m10 5c-.55228 0-1 .44772-1 1s.44772 1 1 1h5.5858l-10.29291 10.2929c-.39052.3905-.39052 1.0237 0 1.4142.39053.3905 1.02369.3905 1.41422 0l10.29289-10.29289v5.58579c0 .5523.4477 1 1 1s1-.4477 1-1v-8c0-.55228-.4477-1-1-1z" fill="#801ed7"/></svg>

<svg width="24" height="24" viewBox="0 0 24 24" fill="none" xmlns="http://www.w3.org/2000/svg">
<path d="M10 5C9.44772 5 9 5.44772 9 6C9 6.55228 9.44772 7 10 7H15.5858L5.29289 17.2929C4.90237 17.6834 4.90237 18.3166 5.29289 18.7071C5.68342 19.0976 6.31658 19.0976 6.70711 18.7071L17 8.41421V14C17 14.5523 17.4477 15 18 15C18.5523 15 19 14.5523 19 14V6C19 5.44772 18.5523 5 18 5H10Z" fill="#801ED7"/>
</svg>
